app/public/assets/logoNav.svg

<svg width="122" height="26" viewBox="0 0 122 26" fill="none" xmlns="http://www.w3.org/2000/svg">
<rect x="34.7617" y="8.25488" width="2.02182" height="11.3661" fill="white"/>
<path d="M41.0117 7.68311L42.9022 9.65159V19.6209H41.0117V7.68311Z" fill="white"/>
<path d="M89.4043 7.68311L91.2947 9.65159V19.6209H89.4043V7.68311Z" fill="white"/>
<path d="M48.2461 8.45605H50.3547V20.5562L48.4823 18.5844L48.2461 8.45605Z" fill="white"/>
<path d="M96.7598 8.52686H98.8683V20.627L96.996 18.6552L96.7598 8.52686Z" fill="white"/>
<rect x="54.7148" y="8.45605" width="1.899" height="11.1654" fill="white"/>
<rect x="56.0957" y="8.45605" width="5.82648" height="1.8167" fill="white"/>
<rect x="56.6133" y="13.1099" width="4.24287" height="1.85729" fill="white"/>
<rect x="103.078" y="8.52686" width="7.26659" height="1.82946" fill="white"/>
<rect x="103.078" y="13.1504" width="7.26659" height="1.82946" fill="white"/>
<rect x="103.078" y="17.7739" width="7.26659" height="1.82946" fill="white"/>
<rect x="64.2168" y="8.45605" width="2.01305" height="11.1654" fill="white"/>
<rect x="115.982" y="8.52686" width="2.16905" height="11.0764" fill="white"/>
<rect x="113.006" y="8.52686" width="8.33596" height="1.82946" fill="white"/>
<path d="M42.8406 12.5924L42.8406 9.6686L49.2993 16.3393L48.5587 18.7007L42.8406 12.5924Z" fill="white"/>
<path d="M91.2741 12.5802L91.2742 9.65639L97.7329 16.3271L96.9923 18.6885L91.2741 12.5802Z" fill="white"/>
<path d="M81.293 7.61426L82.6458 10.1416L77.5171 19.7759L75.0628 19.6562L81.293 7.61426Z" fill="white"/>
<path d="M87.7227 19.6025L85.3612 19.6025L81.0239 11.1442L82.4601 9.81648L87.7227 19.6025Z" fill="white"/>
<rect x="66.0371" y="8.45605" width="3.90052" height="1.8167" fill="white"/>
<path d="M69.9346 8.45605L71.0934 8.91226L72.1085 9.55469L72.9292 10.3997L73.3586 11.2317L73.5466 12.0986L71.6193 12.0986L71.3612 11.5738L70.9547 11.1071L69.9004 10.2538L69.9346 8.45605Z" fill="white"/>
<path d="M67.8371 16.7871L67.9204 14.9372L73.802 19.7112L71.0859 19.7112L67.8371 16.7871Z" fill="white"/>
<path d="M71.5997 12.0591L73.5447 12.0792L73.5904 12.8532L73.5587 13.6343L73.3039 14.3988L72.6968 15.138L71.9856 15.8083L70.1794 16.7803L67.9453 14.9872H69.1222L69.7578 14.9313L70.2717 14.7461L70.9447 14.1894L71.4328 13.4962L71.5997 12.7583V12.0591Z" fill="white"/>
<g filter="url(#filter0_i_590_884)">
<line y1="-0.5" x2="11.1023" y2="-0.5" transform="matrix(0.9123 -0.409522 0.500815 0.865554 3.75781 8.18799)" stroke="#3867FB"/>
<line y1="-0.5" x2="11.8163" y2="-0.5" transform="matrix(0.928532 0.371252 -0.458108 0.888897 13.8867 3.6416)" stroke="#3867FB"/>
<line y1="-0.5" x2="10.991" y2="-0.5" transform="matrix(0.899014 0.437919 -0.531747 0.846903 3.82227 17.9341)" stroke="black"/>
<line y1="-0.5" x2="12.0105" y2="-0.5" transform="matrix(0.916189 -0.400746 0.491124 0.87109 13.7031 22.7471)" stroke="#3966FF"/>
<line y1="-0.5" x2="11.9939" y2="-0.5" transform="matrix(0.00574783 0.999983 -0.99999 0.00445926 1.01172 7.09619)" stroke="black"/>
<line y1="-0.5" x2="11.2346" y2="-0.5" transform="matrix(0.00306814 0.999995 -0.999997 0.0023803 1.97461 7.49072)" stroke="black"/>
<line y1="-0.5" x2="13.3408" y2="-0.5" transform="matrix(0.910191 -0.414189 0.505944 0.862566 1.97461 7.49072)" stroke="black"/>
<line y1="-0.5" x2="14.4147" y2="-0.5" transform="matrix(0.906954 -0.421231 0.513649 0.858 1.04492 7.09619)" stroke="black"/>
<line y1="-0.5" x2="13.1695" y2="-0.5" transform="matrix(0.905825 0.423652 -0.516289 0.856414 14.3633 1.96533)" stroke="black"/>
<line y1="-0.5" x2="14.4876" y2="-0.5" transform="matrix(0.907894 0.4192 -0.511432 0.859324 14.1191 1.02441)" stroke="black"/>
<line x1="26.793" y1="7.54443" x2="26.793" y2="18.7224" stroke="black"/>
<line x1="27.7715" y1="7.09766" x2="27.7715" y2="19.138" stroke="black"/>
<line y1="-0.5" x2="13.3478" y2="-0.5" transform="matrix(0.907135 0.420839 -0.513222 0.858256 2.00977 18.7256)" stroke="black"/>
<line y1="-0.5" x2="14.4429" y2="-0.5" transform="matrix(0.902799 0.430063 -0.523257 0.852175 1.08008 19.0898)" stroke="black"/>
<line y1="-0.5" x2="13.4088" y2="-0.5" transform="matrix(0.907922 -0.419139 0.511364 0.859364 14.1191 24.3428)" stroke="black"/>
<line y1="-0.5" x2="14.474" y2="-0.5" transform="matrix(0.908742 -0.417358 0.509417 0.86052 14.1191 25.3013)" stroke="black"/>
<path d="M3.75849 8.18838L4.53931 7.84336L5.11832 7.57715L4.92951 18.4201L4.27497 18.0985L3.6582 17.8657L3.75849 8.18838Z" fill="#F3EEEE"/>
<path d="M9.33078 5.64188L10.6769 5.02639L12.4422 4.28125L12.1112 21.8715L10.7136 21.2074L9.05859 20.3814L9.33078 5.64188Z" fill="white"/>
<path d="M22.9629 7.35987L23.8808 7.6708L24.7296 7.96289V17.9084L22.9629 18.5332V7.35987Z" fill="#F3EEEE"/>
<path d="M16.09 11.4668L17.9951 20.8504L15.9102 21.765L15.9837 17.2784V15.0531L16.09 11.4668Z" fill="white"/>
<path d="M19.2532 14.1875L17.3726 4.97868L19.5684 5.8673L19.2532 14.1875Z" fill="white"/>
<path d="M1 7.11116L14.1035 1.01416L14.2124 1.94789L1.97237 7.4295L1 7.11116Z" fill="white"/>
<path d="M1.04492 7.09619L1.99294 7.36994V18.7006L1.04492 19.0789V7.09619Z" fill="white"/>
<path d="M14.1035 1L27.289 7.07766L26.3158 7.55702L14.2072 1.96085L14.1035 1Z" fill="white"/>
<path d="M26.3091 7.56151L27.2921 7.07568L27.272 19.1983L26.293 18.6552L26.3091 7.56151Z" fill="white"/>
<path d="M14.1175 24.3431L26.3417 18.6992L27.2598 19.207L14.1035 25.2639L14.1175 24.3431Z" fill="white"/>
<path d="M1.95938 18.7178L14.1163 24.3338L14.1017 25.2673L1.08398 19.0792L1.95938 18.7178Z" fill="white"/>
</g>
<line y1="-0.5" x2="19.0271" y2="-0.5" transform="matrix(-0.0109901 0.99994 -0.999964 -0.00852647 13.9082 3.62598)" stroke="black"/>
<path d="M12.4429 4.28501L13.9151 3.62988L13.6953 22.6625L12.1055 21.8723L12.4429 4.28501Z" fill="#0A2859"/>
<path d="M13.9654 3.67529L16.0882 4.38214V12.0891L15.9328 21.7341L13.7324 22.6462L13.9654 3.67529Z" fill="#0C326F"/>
<path d="M19.5138 5.88281L22.9437 7.36052V18.5054L18.7207 20.5688L19.0961 14.2326L19.3182 11.4709L19.5138 5.88281Z" fill="#0C326F"/>
<path d="M16.0742 4.39648L17.3359 4.98441L19.2354 14.1072L18.9767 17.4607L18.8328 19.2581V20.4622L18.005 20.8368L16.0742 11.4983V9.2507V4.39648Z" fill="#0C326F"/>
<path d="M5.12225 7.57281L9.33091 5.65918L9.06641 20.3735L4.92773 18.4378L5.12225 7.57281Z" fill="#0C326F"/>
<path d="M5.11546 7.57908L6.10562 7.12256L6.24486 19.0565L4.94141 18.4501L5.11546 7.57908Z" fill="#0A2859"/>
<defs>
<filter id="filter0_i_590_884" x="0.53125" y="0.165039" width="27.7402" height="29.1362" filterUnits="userSpaceOnUse" color-interpolation-filters="sRGB">
<feFlood flood-opacity="0" result="BackgroundImageFix"/>
<feBlend mode="normal" in="SourceGraphic" in2="BackgroundImageFix" result="shape"/>
<feColorMatrix in="SourceAlpha" type="matrix" values="0 0 0 0 0 0 0 0 0 0 0 0 0 0 0 0 0 0 127 0" result="hardAlpha"/>
<feOffset dy="4"/>
<feGaussianBlur stdDeviation="2"/>
<feComposite in2="hardAlpha" operator="arithmetic" k2="-1" k3="1"/>
<feColorMatrix type="matrix" values="0 0 0 0 0 0 0 0 0 0 0 0 0 0 0 0 0 0 0.25 0"/>
<feBlend mode="normal" in2="shape" result="effect1_innerShadow_590_884"/>
</filter>
</defs>
</svg>

<svg xmlns="http://www.w3.org/2000/svg" width="122" height="26" fill="none"><path fill="#fff" d="M34.762 8.255h2.022v11.366h-2.022zm6.25-.572 1.89 1.969v9.969h-1.89zm48.392 0 1.89 1.969v9.969h-1.89zm-41.158.773h2.109v12.1l-1.873-1.972zm48.514.071h2.108v12.1l-1.872-1.972zm-42.045-.071h1.899v11.165h-1.899z"/><path fill="#fff" d="M56.096 8.456h5.826v1.817h-5.826zm.517 4.654h4.243v1.857h-4.243zm46.465-4.583h7.267v1.829h-7.267zm0 4.623h7.267v1.829h-7.267zm0 4.624h7.267v1.829h-7.267zM64.217 8.456h2.013v11.165h-2.013zm51.765.071h2.169v11.076h-2.169z"/><path fill="#fff" d="M113.006 8.527h8.336v1.829h-8.336zM42.84 12.592V9.67l6.46 6.67-.741 2.362zm48.434-.012V9.656l6.459 6.671-.74 2.361zm-9.981-4.966 1.353 2.528-5.129 9.634-2.454-.12z"/><path fill="#fff" d="M87.723 19.603H85.36l-4.337-8.459 1.436-1.328zM66.037 8.456h3.901v1.817h-3.901z"/><path fill="#fff" d="m69.935 8.456 1.158.456 1.016.643.82.845.43.832.188.867h-1.928l-.258-.525-.406-.467-1.055-.853zm-2.098 8.331.083-1.85 5.882 4.774h-2.716z"/><path fill="#fff" d="m71.6 12.06 1.945.02.045.773-.031.781-.255.765-.607.739-.711.67-1.807.972-2.234-1.793h1.177l.636-.056.514-.185.673-.557.488-.693.167-.738z"/><g filter="url(#a)"><path stroke="#3867FB" d="M0-.5h11.102" transform="matrix(.9123 -.40952 .50082 .86555 3.758 8.188)"/><path stroke="#3867FB" d="M0-.5h11.816" transform="matrix(.92853 .37125 -.4581 .8889 13.887 3.642)"/><path stroke="#000" d="M0-.5h10.991" transform="matrix(.89901 .43792 -.53175 .8469 3.822 17.934)"/><path stroke="#3966FF" d="M0-.5h12.011" transform="matrix(.91619 -.40075 .49112 .87109 13.703 22.747)"/><path stroke="#000" d="M0-.5h11.994" transform="rotate(89.671 -3.063 4.057)skewX(-.074)"/><path stroke="#000" d="M0-.5h11.235" transform="matrix(.00307 1 -1 .00238 1.975 7.49)"/><path stroke="#000" d="M0-.5h13.341" transform="matrix(.9102 -.41419 .50594 .86257 1.975 7.49)"/><path stroke="#000" d="M0-.5h14.415" transform="matrix(.90695 -.42123 .51365 .858 1.045 7.096)"/><path stroke="#000" d="M0-.5h13.169" transform="matrix(.90582 .42365 -.51629 .85641 14.363 1.965)"/><path stroke="#000" d="M0-.5h14.488" transform="matrix(.9079 .4192 -.51143 .85932 14.12 1.024)"/><path stroke="#000" d="M26.793 7.544v11.178m.978-11.624v12.04"/><path stroke="#000" d="M0-.5h13.348" transform="matrix(.90714 .42084 -.51322 .85826 2.01 18.726)"/><path stroke="#000" d="M0-.5h14.443" transform="matrix(.9028 .43006 -.52326 .85218 1.08 19.09)"/><path stroke="#000" d="M0-.5h13.409" transform="matrix(.90792 -.41914 .51136 .85936 14.12 24.343)"/><path stroke="#000" d="M0-.5h14.474" transform="matrix(.90874 -.41736 .50942 .86052 14.12 25.301)"/><path fill="#F3EEEE" d="m3.758 8.188.781-.345.58-.266-.19 10.843-.654-.322-.617-.232z"/><path fill="#fff" d="m9.33 5.642 1.347-.616 1.765-.745-.33 17.59-1.398-.664-1.655-.826z"/><path fill="#F3EEEE" d="m22.963 7.36.918.31.849.293v9.945l-1.767.625z"/><path fill="#fff" d="m16.09 11.467 1.905 9.383-2.085.915.074-4.487v-2.225zm3.163 2.721-1.88-9.21 2.195.89zM1 7.111l13.104-6.097.108.934L1.972 7.43z"/><path fill="#fff" d="m1.045 7.096.948.274V18.7l-.948.379zM14.104 1l13.185 6.078-.973.479-12.109-5.596z"/><path fill="#fff" d="m26.31 7.562.982-.486-.02 12.122-.979-.543zM14.118 24.343 26.342 18.7l.918.508-13.157 6.057zM1.96 18.718l12.156 5.616-.014.933L1.084 19.08z"/></g><path stroke="#000" d="M0-.5h19.027" transform="rotate(90.63 5.16 8.691)skewX(.141)"/><path fill="#0A2859" d="m12.443 4.285 1.472-.655-.22 19.033-1.59-.79z"/><path fill="#0C326F" d="m13.965 3.675 2.123.707v7.707l-.155 9.645-2.2.912zm5.549 2.208 3.43 1.478v11.144L18.72 20.57l.375-6.336.222-2.762z"/><path fill="#0C326F" d="m16.074 4.396 1.262.588 1.9 9.123-.26 3.354-.143 1.797v1.204l-.828.375-1.93-9.339zM5.122 7.573l4.209-1.914-.265 14.715-4.138-1.936z"/><path fill="#0A2859" d="m5.115 7.58.99-.457.14 11.933-1.304-.606z"/><defs><filter id="a" width="27.74" height="29.136" x=".531" y=".165" color-interpolation-filters="sRGB" filterUnits="userSpaceOnUse"><feFlood flood-opacity="0" result="BackgroundImageFix"/><feBlend in="SourceGraphic" in2="BackgroundImageFix" result="shape"/><feColorMatrix in="SourceAlpha" result="hardAlpha" values="0 0 0 0 0 0 0 0 0 0 0 0 0 0 0 0 0 0 127 0"/><feOffset dy="4"/><feGaussianBlur stdDeviation="2"/><feComposite in2="hardAlpha" k2="-1" k3="1" operator="arithmetic"/><feColorMatrix values="0 0 0 0 0 0 0 0 0 0 0 0 0 0 0 0 0 0 0.25 0"/><feBlend in2="shape" result="effect1_innerShadow_590_884"/></filter></defs></svg>
